X:1
T:James Gibb editions
T:Asperges me - Ravanello
%%score { 1 | 2 } 3
L:1/8
Q:1/4=69
M:none
K:G
V:1 treble nm="Soprano I"
V:2 treble 
V:3 treble nm="Alto" snm="A"
V:1
 x4 x4 x || %1
w: |
!p!"^allegretto""^Oreste Ravanello\n (1871-1938)""^Asperges me, op.66/1"[Q:1/4=80] d3 d d2 d2 (d2 e2)"^," d2 g2- g2 f2 e4"^," d2 d2 d2 d2 x2 x2 x2 x2 x2 x2 x2 x2 x2 x2 x2 x2 | %2
w: Do- mi- ne, hys- so\- * po et * mun- da- bor: la- va- bis|
[M:4/4][Q:1/4=80]"^," d2 d2 e2 d2 | (^c2 e2) d2 d2- | d2 g2 e4 | !fermata!d8 || x4 x4 x4 x3 | %7
w: me, et su- per|ni\- * vem de\-|* al- ba-|bor.||
[M:4/4][Q:1/4=69]!f![Q:1/4=80] d4 d2 d2 |[Q:1/4=80] e4 d2 d2 | e2 (Bc) d2 e2 |"^," d4 B4 | %11
w: se- cun- dum|ma- gnam mi-|se- ri\- * cor- di-|am tu-|
 !fermata!A8 ||[Q:1/4=69][Q:1/4=69] x4 x4 x6 x |[Q:1/4=69] x4 x4 x3 || %14
w: am.|||
"^mosso"!f![Q:1/4=90] B2 A2 B2 d2 B2 c2 A3 A A2 z2 z4 z8 z2 d2 e2 f2 x2 x2 x2 x2 x2 x2 x2 x2 x2 x2 x2 x2 x2 x2 x2 x2 | %15
w: Si- cut e- rat in prin- ci- pi- o, et nunc et|
[M:4/4][Q:1/4=90] (g3 f e4) |"^," d2 d4 A2 | B2 dd d2 ^c2 | d4"^," B4 x6 | %19
w: sem\- * *|per, et in|sae- cu- la sae- cu-|lo- rum.|
"^rall."[Q:1/4=84] (A6[Q:1/4=77] B2) x3 |[Q:1/4=76] !fermata!A8 |] x8 | x8 | x8 | x8 | x8 | x8 | %27
w: A\- *|men.|||||||
 x8 | x8 | x8[Q:1/4=90] | x8 | x8 | x8 | x8 | x8 |] %35
w: ||||||||
V:2
 x4 x4 x || %1
w: |
!p! B3 B B2 A2 x2 x2 x2 x2 x2 x2 x2 x2 x2 x2 x2 x2 (B2 c4)"^," B2 A2 d2 (d2 ^c2)"^," d2 A2 B2 =c2 | %2
w: Do- mi- ne, hys- so\- * po et mun- da\- * bor: la- va- bis|
[M:4/4]"^," B2 A2 G2 (AB) | A4 A2 B2- | B2 B2 ^c4 | !fermata!d8 || x4 x4 x4 x3 | %7
w: me, et su- per *|ni- vem de\-|* al- ba-|bor.||
[M:4/4]!f! B4 B2 B2 | (G2 c4) B2 | G2 GG F2 G2 |"^," F4 (G4- | G2 FE) !fermata!F4 || x4 x4 x6 x | %13
w: se- cun- dum|ma\- * gnam|mi- se- ri- cor- di-|am tu\-|* * * am.||
 x4 x4 x3 || %14
w: |
!f! G2 F2 G2 A2 x2 x2 x2 x2 x2 x2 x2 x2 x2 x2 x2 x2 x2 x2 x2 x2 G2 E2 F3 F F2 z2 z4 z2 G2 A2 B2 c2 A2 B2 c2 | %15
w: Si- cut e- rat in prin- ci- pi- o, et nunc et sem\- * * *|
[M:4/4] (B4 c4) |"^," B2 A4 F2 | G2 BB A2 G2 | F4"^," G2 (G2- x6 | G2 FE F2 G2) x3 | !fermata!F8 |] %21
w: |per, et in|sae- cu- la sae- cu-|lo- rum. A\-||men.|
 x8 | x8 | x8 | x8 | x8 | x8 | x8 | x8 | x8 | x8 | x8 | x8 | x8 | x8 |] %35
w: ||||||||||||||
V:3
!p! (DE)(FE D)(FG) A2 ||[M:4/4]!p! G3 G G2 F2 x48 | x2 x2 x2 x2 | x2 x2 x2 x2 | x2 x2 x2 x2 | %5
w: A\- * sper\- * * ges * me,|Do- mi- ne, hys-||||
 (G2 C2)"^," G4 || D2 D2 (A3 G) x7 |"^," F2 F2 G2 A2 |"^," G2 F2 E2 FG | (A2 G2) F2 G2- | %10
w: so\- * po|et mun- da\- *|bor: la- va- bis|me, et su- per *|ni\- * vem de\-|
 G2 E2 A4 | !fermata!D8 ||!p! (DGF)(G A)AA(Ac)B(BAA) !fermata!B2 |[M:4/4]!f! G4 G2 G2 x3 || %14
w: * al- ba-|bor.|Mi\- * * se\- * re- re me\- * i, De\- * * us,|se- cun- dum|
 C4 G2 G2 x64 | E2 E2 D2 C2 |"^," D4 G,4 | !fermata!D8 |!p! (DGF)(G A)A A8 | %19
w: ma- gnam mi-|se- ri- cor- di-|am tu-|am.|Glo\- * * ri\- * a Patri,~et~Filio,|
 AA(Ac) BB(BA)(A !fermata!B2) |[M:4/4]!f! G2 D2 G2 F2 |] x2 x2 x2 x2 | x2 x2 x2 x2 | x2 x2 x2 x2 | %24
w: et Spi- ri\- * tu- i San\- * cto. *|Si- cut e- rat||||
 x2 x2 x2 x2 | G2 C2 D3 D | D2 D2 E2 F2 | (G2 E2 D4) | E2 F2 G2 A2 | (E3 D C2 E2) |"^," G2 F4 D2 | %31
w: |in prin- ci- pi-|o, et nunc et|sem\- * *|per, et nunc et|sem\- * * *|per, et in|
 G2 GG F2 E2 | D4 (E2"^," D2) | (^C4 D2 G,2) | !fermata!D8 |] %35
w: sae- cu- la sae- cu-|lo- rum. *|A\- * *|men.|

